X:1
T:Title
%%score { 1 | ( 2 3 4 ) } { ( 5 7 ) | 6 }
L:1/8
Q:1/4=95
M:4/4
K:C
V:1 treble nm="Grand Piano, Soprano"
V:2 treble 
V:3 treble 
V:4 treble 
V:5 bass nm="Choir Pad, Lo, the Winter Is Past"
V:7 bass 
V:6 bass 
V:1
 EEEE E2 E2 | F2 F2 z4 | FFFF F2 F2 | ^F4 G2 z2 | GGGG G2 ^G2 | A4 c4 | B3 B d2 AB | G4 z4 | %8
w: By~Arthur~M.~F.~Custance * * * * *||||||||
 GGGG G2 G2 | ^G2 G2 z4 | GGGG G2 A2 | B4 B4 | c3 c c2 cc | e4 z4 | c3 G E2 FD | C8 |] %16
w: ||||||||
V:2
 CCCC C2 C2 | D2 D2 z4 | DDDC B,2 D2 | _E4 =E2 z2 | EEEE E2 E2 | E4 E4 | G3 G ^F2 FF | z8 | %8
 _EEEE E2 E2 | F2 F2 z4 | _EEEE E2 G2 | G4 G4 | G3 G A2 FD | z4 c4 | G3 E C2 B,B, | z8 |] %16
V:3
 x8 | x8 | x8 | x8 | x8 | x8 | x8 | x8 | x8 | x8 | x8 | x8 | x8 | D2 z2 z2 ^F2 | x8 | x8 |] %16
V:4
 x8 | x8 | x8 | x8 | x8 | x8 | x8 | x8 | x8 | x8 | x8 | x8 | x8 | z2 E4 z2 | x8 | x8 |] %16
V:5
 G,G,A,B, D2 C2 | C2 B,2 B,2 B,2 | G,G,B,C D2 B,2 | A,4 G,2 z2 | G,G,A,B, C2 D2 | C4[K:treble] z4 | %6
 D3 D A,2 CD | B,4 G,2 F,2 | _B,B,[K:treble]CD F2 _E2 | _E2 D2 D2 C2 | _B,B,CD _E2 E2 | D4 D4 | %12
 C3 C C2[K:bass] A,A, | ^G,2 B,2 C2 D2 | E3 C G,2 D,F, | E,8 |] %16
V:6
 C,C,C,C, G,,2 G,,2 | D,2 D,2 [G,,F,]2 [G,,F,]2 | D,D,D,D, G,,2 G,,2 | C,4 C,2 z2 | %4
 C,C,C,C, C,2 B,,2 | z4 A,4 | D,3 D, D,2 D,D, | G,4 G,,2 F,,2 | [_E,,_E,]E,E,E, _B,,2 B,,2 | %9
 F,2 F,2 [_B,,^G,]2 [B,,G,]2 | _E,E,E,E, E,2 C,2 | G,,2 D,2 G,2 F,2 | E,3 E, F,2 F,F, | %13
 E,2 ^G,2 A,4 | G,3 G, G,,2 .G,,2 | C,8 |] %16
V:7
 x8 | x8 | x8 | x8 | x8 | z A,,C,E,[K:treble] C4 | x8 | x8 | x2[K:treble] x6 | x8 | x8 | x8 | %12
 x6[K:bass] x2 | x8 | x8 | x8 |] %16

